public/NodeJS.svg

<svg width="50" height="50" viewBox="0 0 50 50" fill="none" xmlns="http://www.w3.org/2000/svg">
<g clip-path="url(#clip0_150_147)">
<path d="M24.7109 40.3113C24.5468 40.3113 24.3828 40.2645 24.2344 40.1863L22.7343 39.2958C22.5078 39.1708 22.6172 39.1238 22.6953 39.1004C22.9922 38.9988 23.0547 38.9754 23.375 38.7879C23.4062 38.7723 23.4532 38.7801 23.4844 38.7958L24.6406 39.4833C24.6797 39.5067 24.7422 39.5067 24.7812 39.4833L29.2968 36.8738C29.3359 36.8504 29.3672 36.8036 29.3672 36.7488V31.5379C29.3672 31.4833 29.3437 31.4363 29.2968 31.4129L24.7812 28.8113C24.7422 28.7879 24.6875 28.7879 24.6406 28.8113L20.125 31.4129C20.0782 31.4363 20.0547 31.4911 20.0547 31.5379V36.7488C20.0547 36.7957 20.0859 36.8426 20.125 36.8661L21.3593 37.577C22.0313 37.9129 22.4453 37.5145 22.4453 37.1238V31.9754C22.4453 31.9051 22.5 31.8426 22.5782 31.8426H23.1484C23.2187 31.8426 23.2812 31.8973 23.2812 31.9754V37.1238C23.2812 38.0223 22.7968 38.5301 21.9453 38.5301C21.6875 38.5301 21.4766 38.5301 20.9062 38.2488L19.7187 37.5692C19.4297 37.3973 19.2422 37.0848 19.2422 36.7488V31.5379C19.2422 31.202 19.4218 30.8817 19.7187 30.7176L24.2344 28.1083C24.5234 27.9442 24.8984 27.9442 25.1797 28.1083L29.6953 30.7176C29.9844 30.8895 30.1719 31.202 30.1719 31.5379V36.7488C30.1719 37.0848 29.9922 37.4051 29.6953 37.5692L25.1797 40.1786C25.0468 40.2645 24.8828 40.3113 24.7109 40.3113V40.3113ZM28.3593 35.1708C28.3593 34.1942 27.7031 33.9363 26.3125 33.7488C24.9063 33.5613 24.7657 33.4676 24.7657 33.1395C24.7657 32.8661 24.8828 32.5067 25.9218 32.5067C26.8516 32.5067 27.1953 32.7098 27.3359 33.3348C27.3516 33.3973 27.3984 33.4363 27.4609 33.4363H28.0468C28.0859 33.4363 28.1172 33.4208 28.1407 33.3973C28.1641 33.3661 28.1797 33.3348 28.1719 33.2958C28.0782 32.2176 27.3672 31.7176 25.9218 31.7176C24.6328 31.7176 23.8672 32.2645 23.8672 33.1708C23.8672 34.1629 24.6328 34.4286 25.8672 34.5536C27.3437 34.702 27.4609 34.9129 27.4609 35.202C27.4609 35.7098 27.0547 35.9208 26.1016 35.9208C24.9062 35.9208 24.6406 35.6238 24.5547 35.0301C24.5468 34.9676 24.4922 34.9208 24.4219 34.9208H23.8359C23.7657 34.9208 23.7031 34.9754 23.7031 35.0536C23.7031 35.8113 24.1172 36.7176 26.0937 36.7176C27.5391 36.7176 28.3593 36.1551 28.3593 35.1708V35.1708ZM32.6172 31.2567C32.6172 31.7333 32.2266 32.1238 31.75 32.1238C31.2734 32.1238 30.8828 31.7333 30.8828 31.2567C30.8828 30.7645 31.2891 30.3895 31.75 30.3895C32.2187 30.3817 32.6172 30.7645 32.6172 31.2567ZM32.4766 31.2567C32.4766 30.8504 32.1484 30.5301 31.7422 30.5301C31.3437 30.5301 31.0157 30.8504 31.0157 31.2567C31.0157 31.6629 31.3437 31.9911 31.7422 31.9911C32.1484 31.9833 32.4766 31.6551 32.4766 31.2567ZM32.125 31.7411H31.9219C31.9141 31.6942 31.8828 31.4442 31.8828 31.4363C31.8672 31.3817 31.8516 31.3504 31.7812 31.3504H31.6094V31.7411H31.4219V30.7645H31.7578C31.875 30.7645 32.1016 30.7645 32.1016 31.0223C32.1016 31.202 31.9843 31.2411 31.9141 31.2645C32.0469 31.2723 32.0547 31.3583 32.0782 31.4833C32.0859 31.5613 32.1016 31.6942 32.125 31.7411ZM31.9062 31.0536C31.9062 30.9208 31.8125 30.9208 31.7657 30.9208H31.6094V31.1942H31.7578C31.8828 31.1942 31.9062 31.1083 31.9062 31.0536V31.0536ZM10.7266 19.9208C10.7266 19.7098 10.6172 19.5223 10.4375 19.4207L5.64844 16.6629C5.57032 16.6161 5.47657 16.5926 5.38282 16.5848H5.33594C5.24219 16.5848 5.15625 16.6161 5.07032 16.6629L0.289063 19.4207C0.109375 19.5223 0 19.7176 0 19.9208L0.0078125 27.3426C0.0078125 27.4442 0.0625 27.5379 0.148437 27.5926C0.234375 27.6473 0.34375 27.6473 0.4375 27.5926L3.28125 25.9598C3.46093 25.8504 3.57032 25.6629 3.57032 25.4598V21.9911C3.57032 21.7879 3.67969 21.5926 3.85937 21.4911L5.07032 20.7958C5.16407 20.7411 5.25781 20.7176 5.35937 20.7176C5.46093 20.7176 5.5625 20.7411 5.64844 20.7958L6.85937 21.4911C7.03907 21.5926 7.14843 21.7879 7.14843 21.9911V25.4598C7.14843 25.6629 7.25781 25.8583 7.4375 25.9598L10.2812 27.5926C10.3672 27.6473 10.4844 27.6473 10.5703 27.5926C10.6562 27.5458 10.7109 27.4442 10.7109 27.3426L10.7266 19.9208ZM36.9141 11.8192V25.6004C36.9141 25.8036 36.8047 25.9988 36.625 26.1004L31.8359 28.8661C31.6562 28.9676 31.4375 28.9676 31.2578 28.8661L26.4688 26.1004C26.2891 25.9988 26.1797 25.8036 26.1797 25.6004V20.0692C26.1797 19.8661 26.2891 19.6707 26.4688 19.5692L31.2578 16.8036C31.4375 16.702 31.6562 16.702 31.8359 16.8036L33.0312 17.4911C33.1641 17.5692 33.3359 17.4676 33.3359 17.3192V9.97543C33.3359 9.75668 33.5703 9.61605 33.7657 9.72543L36.6172 11.3192C36.7969 11.4129 36.9141 11.6082 36.9141 11.8192V11.8192ZM33.3203 21.8895C33.3203 21.8348 33.2891 21.7879 33.25 21.7645L31.6094 20.8113C31.5625 20.7879 31.5078 20.7879 31.4609 20.8113L29.8203 21.7645C29.7734 21.7879 29.75 21.8348 29.75 21.8895V23.7879C29.75 23.8426 29.7813 23.8895 29.8203 23.9129L31.4609 24.8583C31.5078 24.8817 31.5625 24.8817 31.6016 24.8583L33.2422 23.9129C33.2891 23.8895 33.3125 23.8426 33.3125 23.7879V21.8895H33.3203ZM49.7109 21.8348C49.8906 21.7333 50 21.5379 50 21.3348V19.9988C50 19.7958 49.8906 19.6004 49.7109 19.4989L44.9532 16.7332C44.7734 16.6317 44.5547 16.6317 44.375 16.7332L39.5859 19.4989C39.4063 19.6004 39.2968 19.7958 39.2968 19.9988V25.5301C39.2968 25.7411 39.4063 25.9286 39.5859 26.0301L44.3438 28.7411C44.5156 28.8426 44.7344 28.8426 44.9141 28.7411L47.7891 27.1395C47.9844 27.0301 47.9844 26.7488 47.7891 26.6395L42.9687 23.8738C42.875 23.8192 42.8203 23.7254 42.8203 23.6238V21.8895C42.8203 21.7879 42.875 21.6942 42.9687 21.6395L44.4687 20.7723C44.5547 20.7176 44.6719 20.7176 44.7578 20.7723L46.2578 21.6395C46.3437 21.6942 46.4062 21.7879 46.4062 21.8895V23.2488C46.4062 23.4676 46.6484 23.6083 46.8438 23.4988L49.7109 21.8348ZM43.6718 22.1083C43.6406 22.1317 43.6172 22.1629 43.6172 22.202V23.2645C43.6172 23.3036 43.6406 23.3426 43.6718 23.3583L44.5937 23.8895C44.625 23.9129 44.6719 23.9129 44.7032 23.8895L45.625 23.3583C45.6562 23.3348 45.6797 23.3036 45.6797 23.2645V22.202C45.6797 22.1629 45.6562 22.1238 45.625 22.1083L44.7032 21.577C44.6719 21.5536 44.625 21.5536 44.5937 21.577L43.6718 22.1083ZM23.8125 25.5067V20.0067C23.8125 19.8036 23.6875 19.6082 23.5078 19.5067L18.7344 16.7567C18.5703 16.6629 18.3437 16.6473 18.1562 16.7567L13.3828 19.5067C13.2032 19.6082 13.0781 19.7958 13.0781 20.0067V25.5067C13.0781 25.7254 13.2266 25.9129 13.3906 26.0067L18.1719 28.7567C18.3594 28.8661 18.5781 28.8583 18.75 28.7567L23.5157 26.0067C23.6562 25.9286 23.7578 25.7958 23.7969 25.6395C23.8047 25.6004 23.8125 25.5536 23.8125 25.5067V25.5067ZM18.0078 15.7489L17.9453 15.7879H18.0313L18.0078 15.7489ZM23.9609 25.9208L23.9297 25.8661V25.9363L23.9609 25.9208Z" fill="#1096E1"/>
</g>
<defs>
<clipPath id="clip0_150_147">
<rect width="50" height="50" fill="white"/>
</clipPath>
</defs>
</svg>

<svg xmlns="http://www.w3.org/2000/svg" width="50" height="50" fill="none" xmlns:v="https://vecta.io/nano"><g clip-path="url(#A)"><path d="M24.711 40.311a1.03 1.03 0 0 1-.476-.125l-1.5-.891c-.227-.125-.117-.172-.039-.195.297-.102.359-.125.68-.312.031-.016.078-.008.109.008l1.156.688a.15.15 0 0 0 .141 0l4.516-2.609c.039-.023.07-.07.07-.125v-5.211c0-.055-.024-.102-.07-.125l-4.516-2.602c-.039-.023-.094-.023-.141 0l-4.516 2.602c-.047.023-.07.078-.07.125v5.211c0 .047.031.094.07.117l1.234.711c.672.336 1.086-.062 1.086-.453v-5.148c0-.07.055-.133.133-.133h.57c.07 0 .133.055.133.133v5.148c0 .898-.484 1.406-1.336 1.406-.258 0-.469 0-1.039-.281l-1.187-.68c-.289-.172-.476-.484-.476-.82v-5.211a.94.94 0 0 1 .476-.82l4.516-2.609a.97.97 0 0 1 .945 0l4.516 2.609c.289.172.477.484.477.82v5.211a.94.94 0 0 1-.477.82l-4.516 2.609c-.133.086-.297.133-.469.133h0zm3.648-5.141c0-.977-.656-1.234-2.047-1.422-1.406-.187-1.547-.281-1.547-.609 0-.273.117-.633 1.156-.633.93 0 1.273.203 1.414.828.016.063.063.102.125.102h.586a.13.13 0 0 0 .094-.039c.023-.031.039-.062.031-.102-.094-1.078-.805-1.578-2.25-1.578-1.289 0-2.055.547-2.055 1.453 0 .992.766 1.258 2 1.383 1.476.148 1.594.359 1.594.648 0 .508-.406.719-1.359.719-1.195 0-1.461-.297-1.547-.891-.008-.062-.062-.109-.133-.109h-.586c-.07 0-.133.055-.133.133 0 .758.414 1.664 2.391 1.664 1.445 0 2.266-.562 2.266-1.547h0zm4.258-3.914a.87.87 0 0 1-.867.867.87.87 0 0 1-.867-.867.87.87 0 0 1 .867-.867.86.86 0 0 1 .867.867zm-.141 0c0-.406-.328-.727-.734-.727-.399 0-.727.32-.727.727s.328.734.727.734c.406-.008.734-.336.734-.734zm-.352.484h-.203l-.039-.305c-.016-.055-.031-.086-.102-.086h-.172v.391h-.187v-.977h.336c.117 0 .344 0 .344.258 0 .18-.117.219-.187.242.133.008.141.094.164.219.008.078.023.211.047.258zm-.219-.687c0-.133-.094-.133-.14-.133h-.156v.273h.148a.13.13 0 0 0 .148-.141h0zm-21.18-11.133a.57.57 0 0 0-.289-.5l-4.789-2.758a.62.62 0 0 0-.266-.078h-.047a.55.55 0 0 0-.266.078L.289 19.421c-.18.102-.289.297-.289.5l.008 7.422c0 .102.055.195.141.25s.195.055.289 0l2.844-1.633c.18-.109.289-.297.289-.5v-3.469c0-.203.109-.398.289-.5l1.211-.695c.094-.055.187-.078.289-.078s.203.023.289.078l1.211.695c.18.102.289.297.289.5v3.469c0 .203.109.398.289.5l2.844 1.633c.086.055.203.055.289 0 .086-.047.141-.148.141-.25l.016-7.422zm26.188-8.102V25.6c0 .203-.109.398-.289.5l-4.789 2.766c-.18.102-.398.102-.578 0L26.469 26.1c-.18-.102-.289-.297-.289-.5v-5.531c0-.203.109-.398.289-.5l4.789-2.766c.18-.102.398-.102.578 0l1.195.688c.133.078.305-.023.305-.172V9.975c0-.219.234-.359.43-.25l2.851 1.594c.18.094.297.289.297.5h0zM33.32 21.89c0-.055-.031-.102-.07-.125l-1.641-.953c-.047-.023-.102-.023-.149 0l-1.641.953c-.047.023-.07.07-.07.125v1.898c0 .055.031.102.07.125l1.641.945c.047.023.102.023.141 0l1.641-.945c.047-.023.07-.07.07-.125V21.89h.008zm16.391-.055c.18-.102.289-.297.289-.5v-1.336c0-.203-.109-.398-.289-.5l-4.758-2.766c-.18-.102-.399-.102-.578 0l-4.789 2.766c-.18.102-.289.297-.289.5v5.531a.57.57 0 0 0 .289.5l4.758 2.711c.172.102.391.102.57 0l2.875-1.602c.195-.109.195-.391 0-.5l-4.82-2.766c-.094-.055-.148-.148-.148-.25V21.89a.29.29 0 0 1 .148-.25l1.5-.867c.086-.055.203-.055.289 0l1.5.867c.086.055.148.148.148.25v1.359c0 .219.242.36.438.25l2.867-1.664zm-6.039.273c-.031.023-.055.055-.055.094v1.063c0 .039.023.078.055.094l.922.531c.031.023.078.023.11 0l.922-.531c.031-.023.055-.055.055-.094v-1.062c0-.039-.023-.078-.055-.094l-.922-.531c-.031-.023-.078-.023-.11 0l-.922.531zm-19.859 3.398v-5.5c0-.203-.125-.398-.305-.5l-4.773-2.75c-.164-.094-.391-.109-.578 0l-4.773 2.75c-.18.102-.305.289-.305.5v5.5c0 .219.149.406.313.5l4.781 2.75c.188.109.406.102.578 0l4.766-2.75a.58.58 0 0 0 .281-.367.69.69 0 0 0 .016-.133h0zm-5.805-9.758l-.062.039h.086l-.024-.039zm5.953 10.172l-.031-.055v.07l.031-.015z" fill="#1096e1"/></g><defs><clipPath id="A"><path fill="#fff" d="M0 0h50v50H0z"/></clipPath></defs></svg>
